X: 9892
T: Derry, The
R: reel
M: 4/4
K: Gmajor
GA|:B3A GABG|~A2BA GEDE|GABd gBfB|efge dBAG|B3A GABG|
~A2BA GEDE|1 GA (3Bcd edBG|A2 BA G3A:|2 GA (3Bcd edBd|eBfB g3f||
|:~e3d Bdge|fdAd f2gf|~e3d Bdge|fede e3f|gedB AGBG|
~A2BA GEDE|1 GA (3Bcd edBd|eBfB g3f:|2 GA (3Bcd edBG|A2 BA G3A||

